N1 (Test Face Tinyg)
N2 (T1 D=5 CR=0 - Zmin=-1 - Flat End Mill)
N3 G0 G90 G94 G17
N4 G21
N5 G53 Z0
N6
N7 (Face 1)
N8 M5
N9 M9
N10 T1
N11 S6280 M3
N12 G54
N13 M9
N14 G0 X37.75 Y-22.904
N15 Z15.0
N16 Z9
N17 G18 G2 X27.75 Z-1 I-10 K0 F314
N18 G1 X25 F626
N19 G1 X-25
N20 G17 G2 Y-18.356 I0 J2.274
N21 G1 X25
N22 G3 Y-13.808 I0 J2.274
N23 G1 X-25
N24 G2 Y-9.26 I0 J2.274
N25 G1 X25
N26 G3 Y-4.712 I0 J2.274
N27 G1 X-25
N28 G2 Y-0.163 I0 J2.274
N29 G1 X25
N30 G3 Y4.385 I0 J2.274
N31 G1 X-25
N32 G2 Y8.933 I0 J2.274
N33 G1 X25
N34 G3 Y13.481 I0 J2.274
N35 G1 X-25
N36 G2 Y18.029 I0 J2.274
N37 G1 X25
N38 G3 Y22.577 I0 J2.274
N39 G1 X-25
N40 G18 G2 X-35 Z9 I0 K10 F1256
N41 G0 Z15
N42 G17
N43
N44 M9
N45 G53 Z0
N46 M30
